X:926
T:Fair Swan, The
C:Joe Buchanan's Scottish Tome - Page 543.2
I:543 2
Z:Carl Allison
R:Waltz
L:1/4
M:3/4
K:G
"G"G2 B | d2 g | "C"e3 | "G"d2 B | "Am"A2 B | G2 G | "G"G3- | G3 |
"G"G2 G | "C"B d e | e3 | g2 f | e2 g | "G"e d B | d3- | d3 |
"G"G2 G | "C"B d e | e3 | g2 f | e2 f | "G"e d B | d3- | d g |
"G"G2 B | "C"d2 g | "G"e3 | "G"d2 B | "Am"A2 B | G2 G | "G"G3- | G3 :|

